!!!!SEGMENT: pl-sa--548-a-ix-28--002_anonim--andante.krn
!!!cenid: 18xx:425
!!!COM: Anonim
!!!COM-rismID: pe30004985
!!!CDT:
!!!CNT:
!!!OTL: Andante
!!!PDT:
!!!AGN: Secular
!!!SMS-siglum: PL-SA
!!!SMS-shelfmark: 548/A IX 28
!!!SMS-shelfwork: 002 W
!!!SMS-variant:
!!!SMS-altvar:
!!!NIFC-rismSourceID: 1001068948
!!!NIFC-islandoraID:
!!!URL-pdf-islandora:
!!!URL-scan: https://bc.bdsandomierz.pl/dlibra/publication/1440/edition/1408/content @EN{Scan on Cyfrowa Biblioteka Diecezjalna w Sandomierzu} @PL{Skany w portalu Cyfrowa Biblioteka Diecezjalna w Sandomierzu}
!!!ONB-nifc: Str. 3 (s. 3) – str. 5 (s. 2)
!!!AIN: 1 piano
!!!key:
**kern	**kern
*part1	*part1
*staff2	*staff1
*Ipiano	*Iempty
*I"Piano	*
*I'P-no	*
*clefF4	*clefG2
*k[f#]	*k[f#]
*G:	*G:
*M2/2	*M2/2
*met(c|)	*met(c|)
!	!LO:TX:a:i:t=Andante
!	!LO:N:vis=8.
8BL 8G\	4bb\
8d\J	.
8BL 8G\	8.bb\L
8d\J	.
.	16bb\Jk
=1	=1
8BL 8G\	2gg\
8d\	.
8B 8G\	.
8d\J	.
*rep	*
8BL 8G\	8bb\
8d\	8r
8B 8G\	8.bb\L
8d\J	.
.	16bb\Jk
*Xrep	*
=2	=2
*rep	*
8BL 8G\	2gg\
8d\	.
8B 8G\	.
8d\J	.
*Xrep	*
8eL 8G\	8.ccc\L
8g\	.
.	16ddd\K
8e 8G\	8.eee\
8g\J	.
.	16ccc\Jk
=3	=3
8AL 8F#\	8.aa\L
8d\	.
.	16aa\K
8A 8F#\	8.aa\
8d\J	.
.	16aa\Jk
8BL 8G\	8.gg\L
8d\	.
.	16aa\K
8B 8G\	8.gg\
8d\J	.
.	16aa\Jk
=4	=4
8d 8G\	8bb\
8r	8r
8d 8G\	8.bb\L
8r	.
.	16gg\Jk
8d\	8ddd\
8r	8r
8d 8G\	8.bb\L
8r	.
.	16gg\Jk
!LO:LB:g=original	!LO:LB:g=original
=5	=5
8d\	8ddd 8ff#\
8r	8r
8d 8G\	8.bb\L
8r	.
.	16gg\Jk
8d\	4ddd 4ff#\
8r	.
8d 8G\	8.bb\L
8r	.
.	16gg\Jk
=6	=6
4ryy	4ddd 4ff#\
4r	4r
2r;	2r;
=7	=7
2ryy	2r
8BL 8G\	4b\
8d\	.
8B 8G\	8.b\L
8d\J	.
.	16a\Jk
=8	=8
*rep	*
8BL 8G\	4.g/
8d\	.
8B 8G\	.
8d\J	8g/
8BL 8G\	4b/
8d\	.
8B 8G\	8.b/L
8d\J	.
.	16a/Jk
*Xrep	*
=9	=9
*rep	*
8BL 8G\	4.g/
8d\	.
8B 8G\	.
8d\J	8g/
*Xrep	*
8cL 8A\	8.cc/L
8d\	.
.	16dd/K
8c 8A\	8.ee/
8d\J	.
.	16cc/Jk
=10	=10
8BL 8G\	4b/
8d\	.
8B 8G\	8g/
8d\J	8r
*rep	*
8BL 8G\	4b/
8d\	.
8B 8G\	8.b\L
8d\J	.
.	16cc#X\Jk
*Xrep	*
!LO:LB:g=original	!LO:LB:g=original
=11	=11
8AL 8F#\	4dd\
8c\	.
8A 8F#\	8a\
8c\J	8r
8BL 8G\	4b\
8d\	.
8B 8G\	8.b\L
8d\J	.
.	16cc#X\Jk
=12	=12
8AL 8F#\	4dd\
8B\	.
8A 8F#\	8a\
8B\J	4.a\
*rep	*
8AL 8F#\	.
8B\	.
8A 8F#\	8r
8B\J	8dd\
*Xrep	*
=13	=13
8G\L	4.dd\
8d\	.
8B\	.
8d\J	8b\
8A\L	8a\L
8d\	8dd\
8e\	8cc#X\
8c#X\J	8ee\J
=14	=14
4d\	4dd\
4r	8.dd\L
.	16dd\Jk
2r	8dd\
.	8r
.	8dd\
.	8r
=15	=15
2r	8dd\
.	8r
.	8dd\
.	8r
8B-XL 8G\	4g/
8D\	.
8B- 8G\	4g/
8D\J	.
!LO:PB:g=original	!LO:PB:g=original
=16	=16
8cL 8A\	4a/
8D\J	.
8cL 8F#\	4a/
8D\J	.
8B-XL 8G\	4b-X/
8D\J	.
.	16qqcc/LL
.	16qqb-/JJ
8B-L 8G\	8.a/L
8D\J	.
.	16g/Jk
=17	=17
8AL 8F#\	(4a/
8D\	.
8A 8F#\	8d/)
8D\J	8r
8B-XL 8G\	4g/
8D\	.
8B- 8G\	4g/
8D\J	.
=18	=18
8cL 8F#\	4a/
8D\	.
8c 8A 8F#\	4a/
8D\J	.
8BL 8G\	4b-X\
8D\	.
.	(16qqcc/LL
.	16qqb-/JJ)
8B 8G\	8a/L
8D\J	8g/J
=19	=19
4A 4F# 4D\	4dd\
4ryy	4dd\
2r	2ddTT\
=20	=20
2ryy	2dd\
8d\	8.bn\L
8r	.
.	16cc\K
8d\	8.a\
8r	.
.	16b\Jk
=21	=21
4Bn 4G\	(4g/
4r	4d/)
8B 8G\	8.b\L
8r	.
.	16cc\K
8c 8G\	8.a\
8r	.
.	16b\Jk
!LO:LB:g=original	!LO:LB:g=original
=22	=22
8B 8G\	4g/
8r	.
8BL 8G\	4g/
8B\J	.
8cL 8G\	8.cc\L
8e\	.
.	16dd\K
8c 8G\	8.ee\
8e\J	.
.	16cc\Jk
=23	=23
8cL 8A\	4a/
8d\	.
8c 8A\	4a/
8d\J	.
8BL 8G\	8.b/L
8d\	.
.	16a/K
8B 8G\	8.g/
8d\J	.
.	16a/Jk
=24	=24
8BL 8G\	2b\
8d\	.
8B 8G\	.
8d\J	.
8AL 8Fn\	8dd\L
8d\	8cc\
8A 8F\	8b\
8d\J	8a\J
=25	=25
8BL 8G 8E\	4.g#X/
8d\	.
8B 8E\	.
8d\J	16a/LL
.	16b/JJ
8cL 8A\	8cc/L
8e\	8b/
8c 8A\	8a/
8e\J	8gn/J
=26	=26
8AL 8D\	4f#/
8c\	.
8A 8D\	8d/
8c\J	8r
8B 8G\	8.g\L
8r	.
.	16a\K
8B 8G\	8.b\
8r	.
.	16cc\Jk
=27	=27
8B 8G\	4.dd\
8r	.
8d 8B\	.
8r	8ee\
8A 8F# 8D\	8.dd\L
8r	.
.	16cc\Jk
8d 8A 8F#\	8a\L
8r	8ee\J
!LO:LB:g=original	!LO:LB:g=original
=28	=28
8B 8G\	4dd\
8r	.
8d 8B\	8gg\
8r	8r
8B 8G\	8.g\L
8r	.
.	16a\K
8B 8G\	8.b\
8r	.
.	16cc\Jk
=29	=29
8B 8G\	4dd\
8r	.
8B 8G\	8b\L
8r	8g\J
8B 8G\	4d/
8r	.
8A 8F# 8D\	8cc\L
8r	8a\J
=30	=30
8.BL 8.G\	4g/
16d\K	.
8.d\	4r
16d\Jk	.
8B-XL 8G\	4gg\
8D\	.
8B- 8G\	4gg\
8D\J	.
=31	=31
8cL 8F#\	4aa\
8D\	.
8c 8F#\	4aa\
8D\J	.
.	16qqgg/LL
.	16qqaa/JJ
8B-XL 8G\	4bb-X\
8D\	.
8B- 8G\	8aa\L
8D\J	8gg\J
=32	=32
8AL 8F#\	4aa\
8D\	.
8A 8F#\	8dd\
8D\J	8r
8BL 8G\	4gg\
8D\	.
8B 8G\	4gg\
8D\J	.
=33	=33
8cL 8F#\	4aa\
8D\	.
8c 8F#\	4aa\
8D\J	.
.	16qqgg/LL
.	16qqaa/JJ
8B-XL 8G\	4bb-X\
8D\	.
8B- 8G\	8aa\L
8D\J	8gg\J
!LO:LB:g=original	!LO:LB:g=original
=34	=34
8AL 8F#\	4aa\
8D\	.
8A 8F#\	8dd\
8D\J	8r
8B-XL 8G\	4gg\
8D\	.
8B- 8G\	4gg\
8D\J	.
=35	=35
8cL 8F#\	4aa\
8D\	.
8c 8F#\	4aa\
8D\J	.
.	16qqgg/LL
.	16qqaa/JJ
8B-XL 8G\	4bb-X\
8D\	.
8B- 8G\	8aa\L
8D\J	8gg\J
=36	=36
4A 4F# 4D\	4ddd\
4r	4ddd\
2r	2dddTT\
=37	=37
2r	2ddd\
8dL 8B 8G\	8.bbn\L
8r	.
.	16ccc\K
8cJ 8G\	8.aa\
8r	.
.	16bb\Jk
=38	=38
8dL 8B 8G\	4gg\
8r	.
8dJ 8B 8G\	4dd\
8r	.
8dL 8B 8G\	8.bb\L
8r	.
.	16ccc\K
8cJ 8G\	8.aa\
8r	.
.	16bb\Jk
=39	=39
8dL 8B 8G\	4.gg\
8r	.
8dJ 8B 8G\	.
8r	8gg\
8eL 8c 8G\	8.ccc\L
8r	.
.	16ddd\K
8eJ 8c 8G\	8.eee\
8r	.
.	16ccc\Jk
!LO:LB:g=original	!LO:LB:g=original
=40	=40
8f#L 8c 8A\	8.aa\L
8r	.
.	16aa\K
8f#J 8c 8A\	8.aa\
8r	.
.	16aa\Jk
8dL 8B 8G\	8.bb\L
8r	.
.	16aa\K
8dJ 8B 8G\	8.gg\
8r	.
.	16aa\Jk
=41	=41
8dL 8B 8G\	2bb\
8r	.
8dJ 8B 8G\	.
8r	.
*	*Xtuplet
8AL 8Fn\	12ddd\L
.	12eee\
8d\J	.
.	12ddd\
8dL 8A 8F\	12ccc\
.	12bb\
8dJ 8A 8F\	.
.	12aa\J
=42	=42
8BL 8E\	12gg#X\L
.	12ee\
8d\	.
.	12ff#\
8B 8E\	12gg#\
.	12aa\
8d\J	.
.	12bb\J
8cL 8A\	12ccc\L
.	12ddd\
8e\	.
.	12ccc\
8c 8A\	12bb\
.	12aa\
8e\J	.
.	12ggn\J
=43	=43
8AL 8D\	8.ff#\L
8c\	.
.	16dd\K
8A 8D\	8.dd\
8c\J	.
.	16dd\Jk
8BL 8G\	8.gg\L
8d\	.
!	!LO:N:vis=8
.	16aa\K
8B 8G\	8.bb\
8d\J	.
!	!LO:N:vis=8
.	16ccc\Jk
=44	=44
8BL 8G\	4.ddd\
8d\	.
8B 8G\	.
8d\J	8eee\
8AL 8F#\	8.ddd\L
8c\	.
.	16ccc\K
8A 8F#\	8.bb\
8c\J	.
.	16ccc\Jk
!LO:PB:g=original	!LO:PB:g=original
=45	=45
8BL 8G\	8.ddd\L
8d\	.
.	16bb\Jk
8B 8G\	4gg\
8d\J	.
*rep	*
8BL 8G\	8.gg\L
8d\	.
.	16aa\K
8B 8G\	8.bb\
8d\J	.
.	16ccc\Jk
*Xrep	*
=46	=46
8BL 8G\	12ddd\L
.	12bb\
8D\	.
.	12aa\
8B 8G\	12gg\
.	12ff#\
8D\J	.
.	12ee\J
8cL 8F#\	12dd\L
.	12ee\
8D\	.
.	12dd\
8c 8F#\	12cc\
.	12b\
8D\J	.
.	12a\J
=47	=47
4B 4G\	4g/
4r	4r
8G\L	8.bL 8.g/
8D\	.
.	16bJk 16g/
8G\	4b 4gT/
8D\J	.
.	16qqa/LL
.	16qqb/JJ
=48	=48
8F#\L	4.dd 4.b\
8D\	.
8F#\	.
8D\J	8cc 8a/
8G\L	8.bL 8.g/
8D\	.
.	16bJk 16g/
8G\	4b 4gT/
8D\J	.
.	16qqa/LL
.	16qqb/JJ
=49	=49
8F#\L	4.dd 4.b\
8D\	.
8F#\	.
8D\J	8cc 8a\
!LO:LB:g=original	!LO:LB:g=original
8BL 8G\	8.bL 8.g\
8D\	.
!	!LO:N:vis=8
.	16dd\K
8B 8G\	8.gg\
8D\J	.
!	!LO:N:vis=8
.	16bb\Jk
=50	=50
8AL 8F#\	8.ccc\L
8D\	.
.	16aa\K
8A 8F#\	8.ff#\
8D\J	.
.	16dd\Jk
8BL 8G\	8.b\L
8D\	.
.	16dd\K
8B 8G\	8.gg\
8D\J	.
.	16bb\Jk
=51	=51
8AL 8F#\	8.aa\L
8D\	.
.	16ff#\K
8A 8F#\	8.dd\
8D\J	.
.	16cc\Jk
8G\L	8.bL 8.g\
8D\	.
.	16bJk 16g\
8G\	4b 4g\
8D\J	.
.	16qqa/LL
.	16qqb/JJ
=52	=52
8F#\L	4.dd 4.b\
8D\	.
8F#\	.
8D\J	8cc 8a\
8BL 8G\	8.bL 8.g\
8D\	.
.	16dd\K
8B 8G\	8.gg\
8D\J	.
.	16bb\Jk
=53	=53
8AL 8E 8C\	12aa\L
.	12bb\
8r	.
.	12aa\
8AJ 8E 8C\	12gg\
.	12ff#\
8r	.
.	12ee\J
8AL 8F# 8D\	12dd\L
.	12ee\
8r	.
.	12dd\
8cJ 8F# 8D\	12cc\
.	12b\
8r	.
.	12a\J
=54	=54
4B 4G\	4g/
4r;	4r;
==	==
*-	*-
!!!system-decoration: {s1,s2}
!!!ENC: Marta Lawrence
!!!END: 2020-11-23
!!!ENC: Marcin Jachim
!!!END: 2020-06-15
